X:2207 
T:Illiam Boght 
T:Cur uss jeed dty chap as chloak 
C:Traditional
O:Isle of Man
Z:Clague collection
B:Kiaull Vannin #207 
L:1/8
M:6/8 
Q:140 
K:D 
F2G A2A|Bcd A3|F2G A2A|Bcd A3|F2E E2F|D2D F2A|B2A B2E|EFE D3|| 

